!!!!SEGMENT: pl-sa--9-a-i-9--004_haydn-joseph--cassatio-in-g-menuet.krn
!!!cenid: 17xx:563
!!!COM: Haydn, Joseph
!!!COM-rismid: pe55803
!!!CDT: 1732/03/31-1809/05/31
!!!CNT: Austrian
!!!OTL: Cassatio in G – Menuet
!!!PDT:
!!!AGN: Secular; Cassation
!!!SMS-siglum: PL-SA
!!!SMS-shelfmark: 9/A I 9
!!!SMS-shelfwork: 001-004 M
!!!SMS-variant:
!!!SMS-altvar:
!!!NIFC-rismid: 1001076831
!!!URL-scan: http://bc.bdsandomierz.pl/dlibra/publication/1275/edition/1243/content
!!!ONB-nifc: UWAGA: części Cassatio: Presto, Menuet, Adagio, Menuet, Presto
**kern	**kern	**kern	**kern	**dynam
*part4	*part3	*part2	*part1	*part1
*staff4	*staff3	*staff2	*staff1	*
*I"Baſso	*I"Viola di Alto	*I"Violino Secundo	*I"Violino Primo	*
*I'B.	*I'V-la	*I'V-no II	*I'V-no I	*
*group1	*group1	*group1	*group1	*
*clefF4	*clefC3	*clefG2	*clefG2	*
*Trd0c0	*	*	*	*
*k[f#]	*k[f#]	*k[f#]	*k[f#]	*
*M3/4	*M3/4	*M3/4	*M3/4	*
=1	=1	=1	=1	=1
*2\right	*2\right	*2\right	*2\right	*
!LO:TX:a:t=P:problem:brak nazwy części	!LO:TX:a:t=Menuet	!LO:TX:a:t=Menuet	!LO:TX:a:t=Menuet	!
4GG/	4G/	4G/	4.g/	.
4B\	4b\	4A/	.	.
.	.	.	8a/	.
4G\	4g\	4B/	4b\	.
=2	=2	=2	=2	=2
.	.	8qqB/	8qqdd/	.
4A\	4b\	4c/	4cc\	.
4G\	4f#\	4A/	4a/	.
4D\	4d\	4A/	4a/	.
=3	=3	=3	=3	=3
.	.	.	8qqa/	.
4G\	4g\	4B/	4b\	.
4E\	4e\	4B/	4b\	.
4A\	4a\	8.c#X/L	8.cc#X\L	.
.	.	(32B/LL	32b\LL	.
.	.	32c#/JJJ)	32cc#\JJJ	.
=4	=4	=4	=4	=4
!	!	!LO:SIC:s=8qc#:v	!LO:TX:a:t=P:problem:2\right:global	!
.	.	8qqc/	8qqdd/	.
4F#\	4f#\	2d/	2dd\	.
8A\L	8a\L	.	.	.
8G\J	8f#\J	.	.	.
4D\	4d\	4r	4r	.
=5	=5	=5	=5	=5
4C/	4c\	4e/	4ee\	.
4c\	4cc\	4e/	4ee\	.
4A\	4a\	8.f#t/L	8.ff#t\L	.
.	.	(32e/LL	32ee\LL	.
.	.	32f#/JJJ)	32ff#\JJJ	.
=6	=6	=6	=6	=6
4B\	4b\	4g/	4gg\	.
4GG/	4G/	8.g/L	8.gg\L	.
.	.	16a/K	16aa\K	.
8.G\L	8.g\L	8.b/	8.bb\	.
16A\Jk	16a\Jk	16cc/Jk	16ccc\Jk	.
=7	=7	=7	=7	=7
4B\	4b\	4dd\	4ddd\	.
4F#\	4g\	4cc\	4ccc\	.
4G\	4a\	8.b\L	8.bbt\L	.
.	.	32a\LL	32aa\LL	.
.	.	32b\JJJ	32bb\JJJ	.
=8	=8	=8	=8	=8
.	.	.	8qqccc/	.
4d\	4dd\	4a/	4aa\	.
4D/	4d\	4r	4r	.
!LO:TX:a:t=P:problem:podwójna kreska taktowa z obustronną repetycją	!LO:TX:a:t=P:problem:podwójna kreska taktowa z obustronną repetycją	!LO:TX:a:t=P:problem:podwójna kreska taktowa z obustronną repetycją	!LO:TX:a:t=P:problem:podwójna kreska taktowa z obustronną repetycją	!
4r	4r	4r	4r	.
!	!	!	!LO:LB:g=original	!
=9||;	=9||;	=9||;	=9||	=9||
!	!	!	!	!LO:DY:a:t=p&colon;
4D/	2.cc\	2.ff#\	4.aa\	p
4D/	.	.	.	.
.	.	.	8bb\	.
4D/	.	.	4ccc\	.
=10	=10	=10	=10	=10
4D\	2.b\	2.gg\	8.bb\L	.
.	.	.	32aa\LL	.
.	.	.	32bb\JJJ	.
4D\	.	.	4ddd\	.
4D\	.	.	4r	.
=11	=11	=11	=11	=11
!LO:TX:a:t=P:problem:takt 11 repetycja	!	!	!	!
4D\	2.f#\	2.cc\	4.ff#\	.
4D\	.	.	.	.
.	.	.	8gg\	.
4D\	.	.	4aa\	.
=12	=12	=12	=12	=12
!LO:TX:a:t=P:problem:takt 12 zapisany repetycją	!	!	!	!
.	.	.	8qqaa/	.
4D\yy	2.g\	2.b\	8.gg\L	.
.	.	.	(32ff#\LL	.
.	.	.	32ee\JJJ)	.
4D\yy	.	.	4dd\	.
4D\yy	.	.	4r	.
=13	=13	=13	=13	=13
!LO:TX:a:t=P:problem:brak taktów 13-15=>pion	!	!	!	!
2.ryy	2.c/	2.f#/	4.a/	.
.	.	.	8b/	.
.	.	.	4cc\	.
!	!	!LO:LB:g=original	!	!
=14	=14	=14	=14	=14
2.ryy	2.B/	2.g/	8.b\L	.
.	.	.	(32a\LL	.
.	.	.	32b\JJJ)	.
.	.	.	4cc\	.
.	.	.	4r	.
=15	=15	=15	=15	=15
2.ryy	4d\	4.b/	4dd\	.
.	4d\	.	4cc\	.
.	.	8a/	.	.
.	4d\	4g/	4b\	.
=16	=16	=16	=16	=16
4D\	4d\	4g/	4bt\	.
4DD/	4D/	4f#/	4a\	.
4r	4r	4r	4r	.
!	!LO:LB:g=original	!	!	!
=17	=17	=17	=17	=17
4GG/	4G/	4G/	4.g/	.
4B\	4b\	4A/	.	.
.	.	.	8a/	.
4G\	4g\	4B/	4b\	.
=18	=18	=18	=18	=18
.	.	.	8qqb/	.
4A\	4a\	4c/	4cc\	.
4F#\	4f#\	4A/	4a\	.
4D\	4d\	4A/	4a\	.
!	!	!	!LO:LB:g=original	!
=19	=19	=19	=19	=19
.	.	.	8qqa/	.
4G\	4g\	4B/	4b\	.
4E\	4e\	4B/	4b\	.
4A\	4a\	4c#X/	8.cc#Xt\L	.
.	.	.	32b\LL	.
.	.	.	32cc#\JJJ	.
=20	=20	=20	=20	=20
!	!	!	!LO:SIC:s=8qcc#:v	!
.	.	.	8qqcc/	.
4F#\	4f#\	2d/	2dd\	.
8A\L	8a\L	.	.	.
8F#\J	8f#\J	.	.	.
4D\	4d\	4r	4r	.
=21	=21	=21	=21	=21
4C/	4A/	4e/	4ee\	.
4c\	4cc\	4e/	4ee\	.
4A\	4a\	8.f#X/L	8.ff#Xt\L	.
.	.	(32e/LL	32ee\LL	.
.	.	32f#/JJJ)	32ff#\JJJ	.
=22	=22	=22	=22	=22
4B\	4b\	4g/	4gg\	.
4G\	4g\	8.g/L	8.gg\L	.
.	.	16a/K	16aa\K	.
4r	4r	8.b/	8.bb\	.
.	.	16cc/Jk	16ccc\Jk	.
=23	=23	=23	=23	=23
4GG/	4G/	4dd\	4ddd\	.
4B\	4b\	4dd\	4ddd\	.
4G\	4g\	4dd\	4ddd\	.
=24	=24	=24	=24	=24
4D\	4e\	4cc\	4ccc\	.
4F#\	4f#\	4r	4aa\	.
4G\	4g\	4b\	4bb\	.
!LO:LB:g=original	!	!	!	!
=25	=25	=25	=25	=25
.	.	8qqb/	8qqbb/	.
4c\	4cc\	4a/	4aa\	.
4d\	4dd\	4g/	4gg\	.
4D\	4d\	4f#/	4ff#\	.
!	!	!LO:LB:g=original	!	!
=26	=26	=26	=26	=26
.	.	.	8qqff#/	.
4G\	4g\	2g/	2gg\	.
8D/L	8d/L	.	.	.
8BB/J	8B/J	.	.	.
!	!LO:TX:a:t=P:problem:podwójna kreska taktowa z obustronną repetycją	!	!	!
4GG/	4G/	4r	4r	.
!	!LO:LB:g=original	!	!LO:LB:g=original	!
=27||;	=27||;	=27||;	=27||;	=27||
*k[b-]	*k[b-]	*k[b-]	*k[b-]	*
*M3/4	*M3/4	*M3/4	*M3/4	*
!	!LO:TX:a:i:t=Trio	!LO:TX:a:t=Trio	!LO:TX:a:t=Trio	!LO:DY:a:t=p&colon;
4GG/	4G/	2.r	4g/	p
4BB-/	4B-/	.	8dd\L	.
.	.	.	8cc\	.
4D\	4d/	.	8b-\	.
.	.	.	8a\J	.
=28	=28	=28	=28	=28
!	!	!LO:TX:a:t=P:problem:brakujący takt	!	!
4G\	4g\	2.ryy	4.b-\	.
4r	4r	.	.	.
.	.	.	(8a/L	.
4d\	4dd\	.	8g/	.
.	.	.	8f#X/J)	.
=29	=29	=29	=29	=29
4G\	4g\	4g/	4g/	.
4r	4r	8dd\L	(8dd\L	.
.	.	(8cc\	8cc\	.
4D\	4d\	8b-\	8b-\	.
.	.	8a\J)	8a\J)	.
=30	=30	=30	=30	=30
4G\	4g\	4.b-\	4.b-\	.
4r	4r	.	.	.
.	.	(8a/L	(8a/L	.
4d\	4dd\	8g/	8g/	.
.	.	8f#X/J)	8f#X/J)	.
=31	=31	=31	=31	=31
4G\	4b-\	4g/	4g/	.
4r	4r	(8dd\L	(4b-\	.
.	.	8cc\	.	.
4d\	4f#X\	8b-\	4dd\)	.
.	.	8a\J)	.	.
=32	=32	=32	=32	=32
4B-\	4g\	4.b-\	4gg\	.
4r	4r	.	(4ee\	.
.	.	(8a/L	.	.
!	!LO:SIC:s=4f#:v	!	!	!
4F#X\	4f#X\	8g/	4cc\)	.
.	.	8f#X/J)	.	.
=33	=33	=33	=33	=33
!	!LO:TX:a:t=P:problem: dodano brakujący takt	!	!	!
.	.	.	8qqcc/	.
4G\	2.ryy	4g/	2b-\	.
4r	.	4b-/	.	.
!LO:SIC:s=4F#:v	!	!	!	!
4F\	.	4dd/	4a\	.
=34	=34	=34	=34	=34
4G\	4g\	4gg\	4g/	.
4G\	4g\	4dd\	4ee-X\	.
4Fn\	8r	4cc\	4dd\	.
.	8f\	.	.	.
=35	=35	=35	=35	=35
!	!	!	!LO:TX:a:t=P:problem:gdzieś w tym pionie jest błąd/błędy	!
(2E-X\	2en\	4b-\	4.cc\	.
.	.	4b-\	.	.
!	!	!	!	!LO:DY:a:t=for
.	.	.	8a\	f
4D\)	4d\	4a\	4b-\	.
=36	=36	=36	=36	=36
!LO:SIC:s=2E-:v	!	!	!	!
(2E\	2e\	2g/	4.cc\	.
.	.	.	8a/	.
4D\)	4d\	4fn/	4b-\	.
!	!	!LO:LB:g=original	!LO:LB:g=original	!
=37	=37	=37	=37	=37
*	*	*Xtuplet	*Xtuplet	*
!	!	!LO:TX:a:t=P:problem:zamazany/wyrwany fragment strony	!	!
!	!	!LO:TX:a:t=P:problem:brak oznaczenia triol:global	!LO:TX:a:t=P:problem:brak oznaczenia triol:global	!
4E-X\	4e\	12ee-X\L	12gg\L	.
.	.	12dd\	12ff\	.
.	.	12cc\J	12ee-X\J	.
4F\	4f\	4b-\	4dd\	.
4FF/	4F/	4a\	4ccT\	.
=38	=38	=38	=38	=38
!	!	!LO:TX:a:t=P:problem:podwójna kreska taktowa z obustronną repetycją	!	!
.	.	.	8qqcc/	.
4BB-/	4B-/	2.b-\	2b-\	.
4B-\	4b-\	.	.	.
!LO:TX:a:t=P:problem:podwójna kreska taktowa z obustronną repetycją	!	!	!LO:TX:a:t=P:problem:podwójna kreska taktowa z obustronną repetycją	!
4r	4r	.	4r	.
=39||;	=39||;	=39||	=39||;	=39||
!LO:N:vis=0	!LO:N:vis=0	!	!	!
1.r	1.r	2.r	4b-\	.
.	.	.	8ff\L	.
.	.	.	(8ee-X\	.
.	.	.	8dd\)	.
.	.	.	8cc\J	.
=40	=40	=40	=40	=40
.	.	4B-/	4.dd\	.
.	.	8f/L	.	.
.	.	8e-X/	(8cc\L	.
.	.	8d/	8b-\	.
.	.	8c/J	8a\J)	.
=41	=41	=41	=41	=41
4BB-/	4B-/	2d/	4b-\	.
8G\L	(8g\L	.	2bn\	.
8F\	8f\	.	.	.
8E-X\	8e-X\	4d/	.	.
8D\J	8d\J)	.	.	.
!LO:LB:g=original	!	!	!	!
=42	=42	=42	=42	=42
4C/	4c\	2e-X/	4cc\	.
4r	4r	.	8gg\L	.
.	.	.	(8ff\	.
4r	4r	4r	8ee-X\	.
.	.	.	8dd\J)	.
=43	=43	=43	=43	=43
2.r	2.r	4c/	4.ee-X\	.
.	.	8g/L	.	.
.	.	8f/	(8dd\L	.
.	.	8e-X/	8cc\	.
.	.	8d/J	8bn\J)	.
!	!LO:LB:g=original	!	!	!
=44	=44	=44	=44	=44
4C/	4c\	4e-X/	4cc\	.
8A\L	(8a\L	2en/	2cc#X\	.
8G\	8g\	.	.	.
8F#X\	8f\	.	.	.
8E\J	8en\J)	.	.	.
=45	=45	=45	=45	=45
4D\	4d\	4f#X/	4dd\	.
4r	(8cc\L	8ee-X\L	4r	.
.	8b-\	(8dd\	.	.
4r	8a\	8cc\)	[4ee-X\	.
.	8g\J)	8b-\J	.	.
=46	=46	=46	=46	=46
4D\	4f#X\	4a/	4ee-\]	.
4r	8b-\L	8dd\L	[2dd\	.
.	8a\	(8cc\	.	.
4r	8g\	8b-\)	.	.
.	8f#\J	8a\J	.	.
=47	=47	=47	=47	=47
4D\	4e-X\	4g/	4dd\]	.
4r	(8a\L	(8cc\L	2cc\	.
.	8g\	8b-\	.	.
4r	8f#X\	8a\)	.	.
!	!	!LO:TX:a:t=P:problem:ciąg dalszy na 12. stronie	!	!
.	8en\J)	8g\J	.	.
!	!	!LO:PB:g=original	!LO:LB:g=original	!
=48	=48	=48	=48	=48
4D\	4d\	4f#X/	4cc\	.
4GG/	4G/	4g/	8b-/L	.
.	.	.	(8a/	.
8G\L	8g\L	8g/L	8g/	.
8Fn\J	8fn\J	8fn/J	8f/J)	.
=49	=49	=49	=49	=49
8E-X/L	8e\L	8e-X/L	(8e-X/L	.
8D/	8d\	8d/	8d/	.
8C/	8c\	8c/	8c/	.
8BB-/	8B-\	8B-/	8B-/)	.
8AA/	8A\	8A/	8A/	.
8GG/J	8G\J	8G/J	8G/J	.
=50	=50	=50	=50	=50
.	.	.	8qqc/	.
4D\	4d\	4d/	4d/	.
4r	4r	4r	4r	.
4r	4r	4r	4r	.
=51	=51	=51	=51	=51
4GG/	4G/	2.r	4g/	.
4BB-/	4B-/	.	8dd\L	.
.	.	.	(8cc\	.
4D/	4d/	.	8b-\)	.
.	.	.	8a\J	.
=52	=52	=52	=52	=52
4G\	4g\	4g/	4.b-\	.
4r	4r	(8dd\L	.	.
.	.	8cc\)	(8a/L	.
4D\	4d\	8b-\	8g/	.
.	.	8a\J	8f/J)	.
=53	=53	=53	=53	=53
4G\	4g\	4.b-\	4g/	.
4r	4r	.	8dd\L	.
.	.	8a\L	(8cc\	.
4D\	4d\	8g\	8b-\	.
.	.	8f#X\J	8a\J)	.
=54	=54	=54	=54	=54
4G\	4g\	4g/	4b-\	.
4r	4r	4r	8gg\L	.
.	.	.	8ffn\	.
4Bn\	4bn\	4g/	8een\	.
.	.	.	8dd\J	.
=55	=55	=55	=55	=55
4c\	4cc\	4g/	4ee-X\	.
4r	4r	8ee-X\L	8ccc\L	.
.	.	(8dd\	8bb-\	.
4r	4r	8cc\)	8aa\	.
.	.	8b-\J	8gg\J	.
=56	=56	=56	=56	=56
.	.	8qqb-/	8qqgg/	.
4D/	4d\	2a/	2ff#X\	.
8d\L	8dd\L	.	.	.
8c\J	8cc\J	.	.	.
4B-\	4b-\	4b-/	4gg\	.
=57	=57	=57	=57	=57
.	.	.	8qqff/	.
4c\	4cc\	8cc/L	12ee-X\L	.
.	.	.	12dd\	.
.	.	8a/J	.	.
.	.	.	12cc\J	.
4d\	4dd\	4b-/	4b-\	.
4D\	4d\	4f#X/	4a/	.
=58	=58	=58	=58	=58
.	.	.	8qqa/	.
4G\	4g\	2g;/	2g/	.
4D\	4d\	.	.	.
!LO:TX:a:t=P:problem:podwójna kreska taktowa z obustronną repetycją	!LO:TX:b:t=Da Capo	!LO:TX:a:t=Menuet Da Capo	!LO:TX:b:t=Menuet Da Capo.	!
4GG/	4G/	4ryy	4r	.
==;	==;	==	==;	==
*-	*-	*-	*-	*-
!!!system-decoration: [(g1)]
!!!ENC:Anna Matuszewska
!!!END:2020-12-05
!!!ENC: Andrzej Gręziak
!!!END: 2020-05-28
